icons/Dollarsign-Square.svg

<svg width="24" height="24" viewBox="0 0 24 24" fill="none" xmlns="http://www.w3.org/2000/svg">
<g id="Dollarsign-Square">
<path id="Vector" d="M15 9.75V8.25C15 7.85218 14.842 7.47064 14.5607 7.18934C14.2794 6.90804 13.8978 6.75 13.5 6.75H10.5C10.1022 6.75 9.72065 6.90804 9.43935 7.18934C9.15804 7.47064 9.00001 7.85218 9.00001 8.25V9C8.99923 9.233 9.0531 9.46295 9.1573 9.67135C9.26151 9.87976 9.41314 10.0608 9.60001 10.2L14.4 13.8C14.5869 13.9392 14.7385 14.1202 14.8427 14.3286C14.9469 14.5371 15.0008 14.767 15 15V15.75C15 16.1478 14.842 16.5294 14.5607 16.8107C14.2794 17.092 13.8978 17.25 13.5 17.25H10.5C10.1022 17.25 9.72065 17.092 9.43935 16.8107C9.15804 16.5294 9.00001 16.1478 9.00001 15.75V14.25" stroke="#00153F" stroke-width="1.5" stroke-linecap="round" stroke-linejoin="round"/>
<path id="Vector_2" d="M12 5.25V18.75" stroke="#00153F" stroke-width="1.5" stroke-linecap="round" stroke-linejoin="round"/>
<path id="Vector_3" d="M17 3H7C4.79086 3 3 4.79086 3 7V17C3 19.2091 4.79086 21 7 21H17C19.2091 21 21 19.2091 21 17V7C21 4.79086 19.2091 3 17 3Z" stroke="#00153F" stroke-width="1.5" stroke-linecap="round" stroke-linejoin="round"/>
</g>
</svg>

<svg xmlns="http://www.w3.org/2000/svg" fill="none" viewBox="0 0 24 24"><g stroke="currentColor" stroke-linecap="round" stroke-linejoin="round" stroke-width="1.5"><path d="M15 9.75v-1.5a1.5 1.5 0 0 0-1.5-1.5h-3A1.5 1.5 0 0 0 9 8.25V9a1.49 1.49 0 0 0 .6 1.2l4.8 3.6A1.49 1.49 0 0 1 15 15v.75a1.5 1.5 0 0 1-1.5 1.5h-3a1.5 1.5 0 0 1-1.5-1.5v-1.5m3-9v13.5"/><path d="M17 3H7a4 4 0 0 0-4 4v10a4 4 0 0 0 4 4h10a4 4 0 0 0 4-4V7a4 4 0 0 0-4-4Z"/></g></svg>
